X: 2082
T: Çargâh Peşrev
C: ?
O: Turkey
F: http://compmusic.upf.edu/node/140
N: yeni-cargah--pesrev--devrikebir----
N: makam= yeni-cargah
N: form= pesrev
N: usul= devrikebir = 28/4
M: 28/4
L: 1/16
K: C    
Q: 1/4=84
%%MIDI tuningsystem comma53
G8 c8  | B4 A4 G2c2 B2c2  | d2e2 d2c2 d2c2 B4  | \
w:   |   |   | 
c2B2 A2B2 G8  | f4 e4 d4 _7/8e4  | 
w:   |   | 
d4 c4 e4 d4  | c12 z4  | g6^a2 =a4 g4  | \
w:   |   |   | 
f4 e4 ^d4 e4  | e4 f4 e4 d4  | c2B2 A2B2 G8  | 
w:   |   |   | 
c8 f4 e4  | g4 f4 f4 e4  | d12 z4  | c4 B4 A4 B4  | \
w:   |   |   |   | 
d4 c2B2 A4 B4  | c8 G8  | c8 g8  | 
w:   |   |   | 
f4 e4 e4 d4  | d4 c4 d4 B4  | c12 z4  | |


